X:1
T:Title
%%score { ( 1 4 ) | ( 2 3 ) }
L:1/8
M:4/4
K:F
V:1 treble nm="Grand Piano"
V:4 treble 
V:2 bass 
V:3 bass 
V:1
 z4 z2[Q:1/4=100] C2 | F2 F2 FGAB | c2 c2 c2 c2 | f4 z4 |[M:3/4] [=B,FA]4 [CEG]2 |[M:1/4] C2 | %6
[M:4/4] F2 F2 FGAB | c2 c2 c2 c2 | f4 z4 |[M:3/4] G4 z2 |] %10
V:2
 z4 z2 [F,A,]2 | z4 .A,2[K:treble] .C2 | [F,A,F]2 [G,B,E]2 [A,CF]2[K:bass] [G,B,E]2 | F4 z4 | %4
[M:3/4] D,2 G,2 C,2 |[M:1/4] [E,B,]2 |[M:4/4] z4 .A,2[K:treble] .C2 | %7
 [F,A,F]2 [G,B,E]2 [A,CF]2 [G,B,E]2 | F4 z4[K:bass] |[M:3/4] [D,=B,]2 [C,_B,]2 [F,A,]2 |] %10
V:3
 x8 | [F,A,C]2 [F,B,D]2 [F,C]-[F,B,C][K:treble][F,F]-[F,A,F] | x6[K:bass] x2 | %3
 [F,A,]2 G,2 A,2 F,2 |[M:3/4] x6 |[M:1/4] x2 | %6
[M:4/4] [F,A,C]2 [F,B,D]2 [F,C]-[F,B,C][K:treble][F,F]-[F,G,F] | x8 | %8
 [F,A,]2 G,2 [A,CF]2[K:bass] [F,CF]2 |[M:3/4] x6 |] %10
V:4
 x8 | x8 | x8 | z2 B,2 [CFc]2 [CFA]2 |[M:3/4] x6 |[M:1/4] x2 |[M:4/4] x8 | x8 | z2 B,2 c2 A2 | %9
[M:3/4] F2 E2 F2 |] %10

